X: 14941
T: Gavottes Des Montagnes
R: polka
M: 2/4
K: Dminor
D^C DE|FE D^C|DE FE|D2 D2|
D^C DE|FE D^C|DE FE|D2 D2|
|:A2 EF|GD FE|DE FD|GF E2|
A/B/A EF|GD FE|DE D^C|D2 D2:|

